public/build/img/garantia-tecnologia.svg

<svg width="142" height="142" viewBox="0 0 142 142" fill="none" xmlns="http://www.w3.org/2000/svg">
<rect x="26" y="26" width="90" height="90" rx="10" stroke="#181818" stroke-width="4"/>
<rect x="41" y="41" width="60" height="60" rx="10" stroke="#181818" stroke-width="4"/>
<path d="M38 2C38 0.89543 37.1046 0 36 0C34.8954 0 34 0.89543 34 2L38 2ZM36 2H34V25H36H38V2L36 2Z" fill="#181818"/>
<path d="M52 2C52 0.89543 51.1046 0 50 0C48.8954 0 48 0.89543 48 2L52 2ZM50 2H48V25H50H52V2L50 2Z" fill="#181818"/>
<path d="M66 2C66 0.89543 65.1046 0 64 0C62.8954 0 62 0.89543 62 2L66 2ZM64 2H62V25H64H66V2L64 2Z" fill="#181818"/>
<path d="M80 2C80 0.89543 79.1046 0 78 0C76.8954 0 76 0.89543 76 2L80 2ZM78 2H76V25H78H80V2L78 2Z" fill="#181818"/>
<path d="M94 2C94 0.89543 93.1046 0 92 0C90.8954 0 90 0.89543 90 2L94 2ZM92 2H90V25H92H94V2L92 2Z" fill="#181818"/>
<path d="M108 2C108 0.89543 107.105 0 106 0C104.895 0 104 0.89543 104 2L108 2ZM106 2H104V25H106H108V2L106 2Z" fill="#181818"/>
<path d="M140 38C141.105 38 142 37.1046 142 36C142 34.8954 141.105 34 140 34V38ZM140 36V34H117V36V38H140V36Z" fill="#181818"/>
<path d="M140 52C141.105 52 142 51.1046 142 50C142 48.8954 141.105 48 140 48V52ZM140 50V48H117V50V52H140V50Z" fill="#181818"/>
<path d="M140 66C141.105 66 142 65.1046 142 64C142 62.8954 141.105 62 140 62V66ZM140 64V62H117V64V66H140V64Z" fill="#181818"/>
<path d="M140 80C141.105 80 142 79.1046 142 78C142 76.8954 141.105 76 140 76V80ZM140 78V76H117V78V80H140V78Z" fill="#181818"/>
<path d="M140 94C141.105 94 142 93.1046 142 92C142 90.8954 141.105 90 140 90V94ZM140 92V90H117V92V94H140V92Z" fill="#181818"/>
<path d="M140 108C141.105 108 142 107.105 142 106C142 104.895 141.105 104 140 104V108ZM140 106V104H117V106V108H140V106Z" fill="#181818"/>
<path d="M104 140C104 141.105 104.895 142 106 142C107.105 142 108 141.105 108 140H104ZM106 140H108V117H106H104V140H106Z" fill="#181818"/>
<path d="M90 140C90 141.105 90.8954 142 92 142C93.1046 142 94 141.105 94 140H90ZM92 140H94V117H92H90V140H92Z" fill="#181818"/>
<path d="M76 140C76 141.105 76.8954 142 78 142C79.1046 142 80 141.105 80 140H76ZM78 140H80V117H78H76V140H78Z" fill="#181818"/>
<path d="M62 140C62 141.105 62.8954 142 64 142C65.1046 142 66 141.105 66 140H62ZM64 140H66V117H64H62V140H64Z" fill="#181818"/>
<path d="M48 140C48 141.105 48.8954 142 50 142C51.1046 142 52 141.105 52 140H48ZM50 140H52V117H50H48V140H50Z" fill="#181818"/>
<path d="M34 140C34 141.105 34.8954 142 36 142C37.1046 142 38 141.105 38 140H34ZM36 140H38V117H36H34V140H36Z" fill="#181818"/>
<path d="M2 104C0.89543 104 0 104.895 0 106C0 107.105 0.89543 108 2 108L2 104ZM2 106V108H25V106V104H2L2 106Z" fill="#181818"/>
<path d="M2 90C0.89543 90 0 90.8954 0 92C0 93.1046 0.89543 94 2 94L2 90ZM2 92V94H25V92V90H2L2 92Z" fill="#181818"/>
<path d="M2 76C0.89543 76 0 76.8954 0 78C0 79.1046 0.89543 80 2 80L2 76ZM2 78V80H25V78V76H2L2 78Z" fill="#181818"/>
<path d="M2 62C0.89543 62 0 62.8954 0 64C0 65.1046 0.89543 66 2 66L2 62ZM2 64V66H25V64V62H2L2 64Z" fill="#181818"/>
<path d="M2 48C0.89543 48 0 48.8954 0 50C0 51.1046 0.89543 52 2 52L2 48ZM2 50V52H25V50V48H2L2 50Z" fill="#181818"/>
<path d="M2 34C0.89543 34 0 34.8954 0 36C0 37.1046 0.89543 38 2 38L2 34ZM2 36V38H25V36V34H2L2 36Z" fill="#181818"/>
</svg>

<svg width="142" height="142" fill="none" xmlns="http://www.w3.org/2000/svg"><rect x="26" y="26" width="90" height="90" rx="10" stroke="#001F3F" stroke-width="4"/><rect x="41" y="41" width="60" height="60" rx="10" stroke="#001F3F" stroke-width="4"/><path d="M38 2a2 2 0 1 0-4 0h4Zm-2 0h-2v23h4V2h-2ZM52 2a2 2 0 1 0-4 0h4Zm-2 0h-2v23h4V2h-2ZM66 2a2 2 0 1 0-4 0h4Zm-2 0h-2v23h4V2h-2ZM80 2a2 2 0 1 0-4 0h4Zm-2 0h-2v23h4V2h-2ZM94 2a2 2 0 1 0-4 0h4Zm-2 0h-2v23h4V2h-2ZM108 2a2 2 0 1 0-4 0h4Zm-2 0h-2v23h4V2h-2ZM140 38a2 2 0 1 0 0-4v4Zm0-2v-2h-23v4h23v-2ZM140 52a2 2 0 1 0 0-4v4Zm0-2v-2h-23v4h23v-2ZM140 66a2 2 0 1 0 0-4v4Zm0-2v-2h-23v4h23v-2ZM140 80a2 2 0 1 0 0-4v4Zm0-2v-2h-23v4h23v-2ZM140 94a2 2 0 1 0 0-4v4Zm0-2v-2h-23v4h23v-2ZM140 108a2 2 0 1 0 0-4v4Zm0-2v-2h-23v4h23v-2ZM104 140a2 2 0 1 0 4 0h-4Zm2 0h2v-23h-4v23h2ZM90 140a2 2 0 1 0 4 0h-4Zm2 0h2v-23h-4v23h2ZM76 140a2 2 0 1 0 4 0h-4Zm2 0h2v-23h-4v23h2ZM62 140a2 2 0 1 0 4 0h-4Zm2 0h2v-23h-4v23h2ZM48 140a2 2 0 1 0 4 0h-4Zm2 0h2v-23h-4v23h2ZM34 140a2 2 0 1 0 4 0h-4Zm2 0h2v-23h-4v23h2ZM2 104a2 2 0 1 0 0 4v-4Zm0 2v2h23v-4H2v2ZM2 90a2 2 0 1 0 0 4v-4Zm0 2v2h23v-4H2v2ZM2 76a2 2 0 1 0 0 4v-4Zm0 2v2h23v-4H2v2ZM2 62a2 2 0 1 0 0 4v-4Zm0 2v2h23v-4H2v2ZM2 48a2 2 0 1 0 0 4v-4Zm0 2v2h23v-4H2v2ZM2 34a2 2 0 1 0 0 4v-4Zm0 2v2h23v-4H2v2Z" fill="#001F3F"/></svg>
